Origami/22x22/apps/estmob-sendanywhere.svg

<svg width="22" height="22" version="1" xmlns="http://www.w3.org/2000/svg">
 <rect transform="matrix(0,-1,-1,0,0,0)" x="-21" y="-21" width="20" height="20" rx="1" ry="1" style="fill:#ff5a48"/>
 <path d="m15.261719 3.4999944a0.26473916 0.26473916 0 0 0 -0.261719 0.2636719v0.7363281h-8s-0.7087517-0.013788-1.4472656 0.3554688-1.5527344 1.3111979-1.5527344 2.6445312v8.0000006h2v-8.0000006c0-0.6666667 0.1857795-0.7247257 0.4472656-0.8554688 0.2614861-0.130743 0.5527344-0.1445312 0.5527344-0.1445312h8.5 2.236328a0.26473916 0.26473916 0 0 0 0.185547 -0.4511719l-2.470703-2.4707031a0.26473916 0.26473916 0 0 0 -0.189453 -0.078125zm0.738281 4v8.0000006c0 0.666666-0.185779 0.724726-0.447266 0.855469-0.261486 0.130743-0.552734 0.144531-0.552734 0.144531h-8.265625-2.4707031a0.26473916 0.26473916 0 0 0 -0.1855469 0.451172l2.4707031 2.470703a0.26473916 0.26473916 0 0 0 0.1894531 0.078125 0.26473916 0.26473916 0 0 0 0.2617188 -0.265625v-0.734375h8s0.708752 0.01379 1.447266-0.355469c0.738513-0.369257 1.552734-1.311198 1.552734-2.644531v-8.0000006h-2zm-7 2.0000006c-0.554 0-1 0.446-1 1v1c0 0.554 0.446 1 1 1s1-0.446 1-1v-1c0-0.554-0.446-1-1-1zm4 0c-0.554 0-1 0.446-1 1v1c0 0.554 0.446 1 1 1s1-0.446 1-1v-1c0-0.554-0.446-1-1-1z" style="fill-rule:evenodd;opacity:.2"/>
 <path d="m1 2.5v-0.5c0-0.554 0.446-1 1-1h18c0.554 0 1 0.446 1 1v0.5c0-0.554-0.446-1-1-1h-18c-0.554 0-1 0.446-1 1z" style="fill:#ffffff;opacity:.2"/>
 <path d="m1 20v0.5c0 0.554 0.446 1 1 1h18c0.554 0 1-0.446 1-1v-0.5c0 0.554-0.446 1-1 1h-18c-0.554 0-1-0.446-1-1z" style="opacity:.2"/>
 <path d="m5 15v-8c0-2 2-2 2-2h8.5" style="fill:none;stroke-width:2;stroke:#ffffff"/>
 <path d="m15.260921 2.9999226a0.26473916 0.26473916 0 0 0 -0.260921 0.2647131v2.4706518a0.26473916 0.26473916 0 0 0 0.264713 0.2647125h2.470652a0.26473916 0.26473916 0 0 0 0.18716 -0.451873l-2.470652-2.4706516a0.26473916 0.26473916 0 0 0 -0.190952 -0.077553z" style="fill:#ffffff"/>
 <path d="m17 7v7.9999c0 1.999999-2 1.999999-2 1.999999h-8.5" style="fill:none;stroke-width:2;stroke:#ffffff"/>
 <path d="m6.739079 18.999977a0.26473916 0.26473916 0 0 0 0.260921 -0.264713v-2.470652a0.26473916 0.26473916 0 0 0 -0.2647125 -0.264713h-2.470652a0.26473916 0.26473916 0 0 0 -0.18716 0.451873l2.4706515 2.470652a0.26473916 0.26473916 0 0 0 0.190952 0.07755z" style="fill:#ffffff"/>
 <rect x="8" y="9" width="2" height="3" ry="1" style="fill:#ffffff"/>
 <rect x="12" y="9" width="2" height="3" ry="1" style="fill:#ffffff"/>
</svg>

<svg xmlns="http://www.w3.org/2000/svg" width="22" height="22" version="1">
 <rect style="fill:#ff5a48" width="20" height="20" x="-21" y="-21" rx="1" ry="1" transform="matrix(0,-1,-1,0,0,0)"/>
 <path style="opacity:0.2;fill-rule:evenodd" d="M 15.261719,3.4999944 A 0.26473916,0.26473916 0 0 0 15,3.7636663 l 0,0.7363281 -8,0 c 0,0 -0.7087517,-0.013788 -1.4472656,0.3554688 C 4.8142205,5.22472 4,6.1666611 4,7.4999944 l 0,8.0000006 2,0 0,-8.0000006 C 6,6.8333277 6.1857795,6.7752687 6.4472656,6.6445256 6.7087517,6.5137826 7,6.4999944 7,6.4999944 l 8.5,0 2.236328,0 A 0.26473916,0.26473916 0 0 0 17.921875,6.0488225 L 15.451172,3.5781194 a 0.26473916,0.26473916 0 0 0 -0.189453,-0.078125 z m 0.738281,4 0,8.0000006 c 0,0.666666 -0.185779,0.724726 -0.447266,0.855469 C 15.291248,16.486207 15,16.499995 15,16.499995 l -8.265625,0 -2.4707031,0 A 0.26473916,0.26473916 0 0 0 4.078125,16.951167 L 6.5488281,19.42187 A 0.26473916,0.26473916 0 0 0 6.7382812,19.499995 0.26473916,0.26473916 0 0 0 7,19.23437 l 0,-0.734375 8,0 c 0,0 0.708752,0.01379 1.447266,-0.355469 C 17.185779,17.775269 18,16.833328 18,15.499995 l 0,-8.0000006 -2,0 z M 9,9.499995 c -0.554,0 -1,0.446 -1,1 l 0,1 c 0,0.554 0.446,1 1,1 0.554,0 1,-0.446 1,-1 l 0,-1 c 0,-0.554 -0.446,-1 -1,-1 z m 4,0 c -0.554,0 -1,0.446 -1,1 l 0,1 c 0,0.554 0.446,1 1,1 0.554,0 1,-0.446 1,-1 l 0,-1 c 0,-0.554 -0.446,-1 -1,-1 z"/>
 <path style="opacity:0.2;fill:#ffffff" d="M 1,2.5 1,2 C 1,1.446 1.446,1 2,1 l 18,0 c 0.554,0 1,0.446 1,1 l 0,0.5 c 0,-0.554 -0.446,-1 -1,-1 l -18,0 c -0.554,0 -1,0.446 -1,1 z"/>
 <path style="opacity:0.2" d="m 1,20 0,0.5 c 0,0.554 0.446,1 1,1 l 18,0 c 0.554,0 1,-0.446 1,-1 L 21,20 c 0,0.554 -0.446,1 -1,1 L 2,21 C 1.446,21 1,20.554 1,20 Z"/>
 <path style="fill:none;stroke:#ffffff;stroke-width:2" d="M 5,15 5,7 C 5,5 7,5 7,5 l 8.5,0"/>
 <path style="fill:#ffffff" d="M 15.260921,2.9999226 A 0.26473916,0.26473916 0 0 0 15,3.2646357 l 0,2.4706518 A 0.26473916,0.26473916 0 0 0 15.264713,6 l 2.470652,0 a 0.26473916,0.26473916 0 0 0 0.18716,-0.451873 L 15.451873,3.0774754 a 0.26473916,0.26473916 0 0 0 -0.190952,-0.077553 z"/>
 <path style="fill:none;stroke:#ffffff;stroke-width:2" d="m 17,7 0,7.9999 c 0,1.999999 -2,1.999999 -2,1.999999 l -8.5,0"/>
 <path style="fill:#ffffff" d="M 6.739079,18.999977 A 0.26473916,0.26473916 0 0 0 7,18.735264 L 7,16.264612 A 0.26473916,0.26473916 0 0 0 6.7352875,15.999899 l -2.470652,0 a 0.26473916,0.26473916 0 0 0 -0.18716,0.451873 l 2.4706515,2.470652 a 0.26473916,0.26473916 0 0 0 0.190952,0.07755 z"/>
 <rect style="fill:#ffffff" width="2" height="3" x="8" y="9" ry="1"/>
 <rect style="fill:#ffffff" width="2" height="3" x="12" y="9" ry="1"/>
</svg>
